X:1
T:Omnis caro foenum
T:Sixtus Dietrich
T:Source : Bicinia---Tomus I---Wittemberg---G.Rhau---1545. Editor : André Vierendeels (18/06/17).
T:Notes : Original clefs : G3, F3 Original note values have been halved Editorial accidentals above the staff Dotted brackets indicate black notes   
T:Omnis caro foenum
T:©
T:©
C:Sixtus Dietrich
Z:©
%%score [ 1 2 ]
L:1/8
Q:1/4=120
M:4/4
K:F
V:1 treble nm="Soprano" snm="S"
V:2 treble-8 nm="Tenor" snm="T"
V:1
 F6 ED | F2 G2 A2 B2- | BA A4 G2 | A4 z2 E2- | E2 DC D2 E2- | ED G4 F2- | F2 E2 D4 | C4 z2 C2 | %8
w: O- * *|mnis ca- ro _|_ _ foe- *|num, et|_ _ _ _ o-|* mnis glo- ri-|* a e-|ius qua-|
 D2 E2 F2 G2 | A4 G2 E2 | F2 G2 A3 B | G2 c4 B2 | c4 z2 G2 | G2 G2 G4 | z4 z2 G2 | A4 F2 F2 | %16
w: si flos a- gri,|ve- re foe-|num est po- *|* * pu-|lus, ex-|ic- ca- tum|est|foe- num et|
 G4 E2 c2- | cB A2 G2 B2- | BA A4 G2 | A4 A4 | A4 G2 B2- | BA A4 G2 | c3 B A2 G2- | GF F4 E2 | %24
w: ce- ci- *||* * * dit|flos, ver-|bum au- tem|_ _ Do- mi-|ni ma- net in-|* ae- ter- *|
 F8 |] %25
w: num.|
V:2
 F3 G AB c2 | d2 e2 f2 d2- | dc BA B4 | z2 A4 GF | G2 A2 G2 c2- | c2 B2 c2 d2- | dc c4 B2 | %7
w: O- * * * *|mnis ca- ro foe-|* * * * num,|et _ _|_ o- mnis glo-|* ri a e-||
 c2 F2 G2 A2 | B2 c2 d4 | c2 A2 B2 c2 | d2 e2 f4 | e2 c2 d4 | z2 c2 c3 c | c4 z2 c2 | d4 B2 B2 | %15
w: ius qua- si flos|a- * *|gri, ve- re foe-|num est po-|* pu- lus,|ex- ic- ca-|tum est|foe- num, est|
 c4 A4 | z2 c3 B A2 | G2 c4 B2 | G2 A2 B4 | A2 f4 f2- | f2 f2 e2 d2- | dcBA B4 | A2 c4 B2 | %23
w: foe- num,|et _ _|ce- ci- *|* * dit|flos, ver- bum|_ au- tem Do-|* * * * mi-|ni ma- net|
 A2 B2 G4 | F8 |] %25
w: in ae- ter-|num.|

